X:1
T:Take Me Out To The Ball Game
T:Words by JACK NORWORTH
T:Music by ALBERT VON TILZER
%%score 1 { ( 2 4 ) | ( 3 5 ) }
L:1/8
Q:1/4=200
M:3/4
K:D
V:1 treble nm="          "
V:2 treble nm="Piano"
V:4 treble 
V:3 bass 
V:5 bass 
V:1
 z z | z6 | z6 | z6 | z6 | z6 | z6 | z6 | z6 |: z6 | z6 ::!mf! A4 A2 | A2 G2 F2 | A4 A2 | A6 | %15
w: |||||||||||Ka- tie|Ca- sey was|base- ball|mad,|
w: |||||||||||Ka- tie|Ca- sey saw|all the|games,|
 B4 B2 | B2 A2 G2 | B4 B2 | B6 | c4 c2 | c2 d2 e2 | B4 B2 | B2 c2 e2 | B6- | B2 c2 e2 | A6 | %26
w: Had the|fev- er and|had it|bad;|Just to|root for the|home- town|crew, ev- ’ry|sou|_ Ka- tie|blew.|
w: Knew the|play- ers by|their first|names;|Told the|um- pi- re|he was|wrong, all a-|long|_ good and|strong.|
 A4 z2 | A4 A2 | A2 G2 F2 | A4 A2 | A6 | B4 B2 | B2 A2 G2 | B4 B2 | B4 A2 | ^G4 G2 | ^G2 A2 B2 | %37
w: _|On a|Sat- ur- day,|her young|beau|called to|see if she’d|like to|go, To|see a|show but Miss|
w: _|When the|score was just|two to|two,|Ka- tie|Ca- sey knew|what to|do, *|Just to|cheer up the|
 c4 A2 | E4 E2 | F2 ^G2 A2 | B4 c2 | A6- | A4 z2 ||"^CHORUS" D4 d2 | B2 A2 F2 | A6 | E6 | D4 d2 | %48
w: Kate said,|“No, I’ll|tell you what|you can|do:”|_|Take me|out to the|ball|game,|Take me|
w: boys she|knew, She|made the gang|sing this|song:|_||||||
 B2 A2 F2 | A6 | A4 z2 | B2 ^A2 B2 | F2 G2 A2 | B4 A2 | E6 | B4 B2 | B2 c2 d2 | e2 c2 B2 | %58
w: out with the|crowd.|_|Buy me some|pea- nuts and|Crack- er|Jack®,|I don’t|care if I|nev- er get|
w: ||||||||||
 A2 F2 E2 | D4 d2 | B2 A2 F2 | A6 | E4 E2 | D4 E2 | F2 G2 A2 | B6 | B2 B2 c2 | d6 | d6 | d2 c2 B2 | %70
w: back. Let me|root, root,|root for the|home|team, If|they don’t|win it’s a|shame,|_ For it’s|one,|two,|three strikes you’re|
w: ||||||||||||
 A2 ^G2 A2 | B6 | c6 |1 d6 | d2 z2 z2 :|2 d6 | d2 z2 z2 |] %77
w: out, at the|old|ball|game!|_|game!|_|
w: |||||||
V:2
!f! Bd | !>!d6 | !>!d6 | !>![D^Fd]2 !>![CFc]2 !>![B,DB]2 | [A,DA]2 [^G,D^G]2 [A,DA]2 | [B,B]6 | %6
 [B,B]6 | ((([Dd]6 | [Dd]2))) z2 z2 |:!mp!"^(Until Ready)"({A,B,)C} D2 [A,DF]2 [A,DF]2 | %10
 z2 [A,DF]2 [A,DF]2 ::!mf! A4 A2 | A2 G2 F2 | A4 A2 | A6 | B4 B2 | B2 A2 G2 | B4 B2 | B6 | %19
 [Gc]4 [Gc]2 | c2 d2 e2 | [GB]4 [GB]2 | B2 c2 e2 | B6- | B2 c2 e2 | [G,A]6- | [G,A]4 z2 | A4 A2 | %28
 A2 G2 F2 | A4 A2 | A6 | B4 B2 | B2 A2 G2 | B4 B2 | B4 A2 | ^G4 G2 | ^G2 A2 B2 | c4 A2 | E4 E2 | %39
 F2 ^G2 A2 | B4 c2 | [CA]2 !>!A,2 !>!^A,2 | !>!B,2 !>!=C2 !>!^C2 ||!ff! !fermata!D4!f! d2 | %44
 B2 A2 F2 | A6 | E6 |!ff! !fermata!D4!f! d2 | B2 A2 F2 | [GA]6 | [GA]4 [EG^A]2 | B2 ^A2 B2 | %52
 F2 G2 A2 | B4 G2 | E6 | B4 B2 | B2 c2 e2 | e2 c2 B2 | A2 F2 E2 |!fff! D4 d2 | B2!f! A2 F2 | A6 | %62
 E4 E2 | D4 E2 | F2 G2 A2 | B6 | B2 B2 c2 |!fff! d6 | d6 | [DFd]2!f!!f! [CFc]2 [B,DB]2 | %70
 [A,DA]2 [^G,D^G]2 [A,DA]2 | [B,B]6 | [Cc]6 |1 [FAd]2 c2 B2 | A2 F2 E2 :|2 [FAd]6 | %76
 [dfd']2 z2 z2 |] %77
V:3
 z2 | !>![B,,B,]6 | !>![_B,,_B,]6 | !>![A,,A,]4 !>![G,,G,]2 | %4
 !>![F,,F,]2 !>![^E,,^E,]2 !>![F,,F,]2 | [=E,,=E,]6 | [A,,A,]6 | D,6 | z6 |: [D,,D,]2 z2 z2 | %10
 [D,,D,]2 z2 z2 :: [D,,D,]4 [C,,C,]2 | [B,,,B,,]4 [A,,,A,,]2 | [D,,D,]4 [C,,C,]2 | %14
 [B,,,B,,]4 [A,,,A,,]2 | [G,,G,]4 [F,,F,]2 | [E,,E,]4 [D,,D,]2 | [G,,G,]4 [F,,F,]2- | %18
 [F,,F,][E,,E,] [E,,E,]2 [D,,D,]2 | [E,,E,]2 [G,A,]2 [G,A,]2 | A,,2 [G,A,C]2 [G,A,C]2 | z2 E2 D2 | %22
 C2- [CE]2 A,2 | E,2 [A,C]2 [A,C]2 | A,,2 [G,A,C]2 [G,A,C]2 | D,2 [F,A,]2 [F,A,]2 | %26
 D,2 (B,,2 A,,2) | [D,,D,]4 [C,,C,]2 | [B,,,B,,]4 [A,,,A,,]2 | [D,,D,]4 [C,,C,]2 | %30
 [B,,,C,]4 [A,,,A,,]2 | [G,,G,]4 [F,,F,]2 | [E,,E,]4 [D,,D,]2 | [G,,G,]4 [F,,F,]2 | [E,,E,]4 z2 | %35
 [E,,E,]2 F,2 E,,2- | [E,,E,]2 F,2 ^G,2 | A,4 E,2 | [C,,C,]2 [E,A,C]2 [E,A,C]2 | %39
 [B,,,B,,]2 [F,A,B,]2 [F,A,B,]2 | [E,,E,]2 [E,^G,]2 [E,G,]2 | [A,,A,]2 !>!A,,2 !>!^A,,2 | %42
 !>!B,,2 !>!=C,2 !>!^C,2 || !fermata!D,2 [F,A,]2 [F,A,]2 | [A,,,A,,]2 [F,A,D]2 [F,A,D]2 | %45
 [E,,E,]2 [G,A,]2 [G,A,]2 | A,,2 G,2 A,,2 | !fermata!D,2 [F,A,]2 [F,A,]2 | %48
 [A,,,A,,]2 [F,A,D]2 [F,A,D]2 | [E,,E,]2 [CE]2 [CE]2 | [A,,A,]2 [A,C]2 [=C,=C]2 | %51
 [B,,B,]2 F,2 [B,,A,]2 | [B,,B,]2 [F,A,B,]2 [F,A,B,]2 | [E,,E,]2 [G,B,]2 [G,B,]2 | %54
 [B,,,B,,]2 [G,B,]2 [G,B,]2 | [^G,,^G,]2 [E,G,D]2 [E,G,D]2 | [E,,E,]2 [E,^G,E]2 [E,G,D]2 | %57
 [A,,A,]2 [A,C]2 [A,D]2 | [A,C]2 F,2 E,2 | D,2 [F,A,]2 [F,A,]2 | [A,,,B,,]2 [F,A,D]2 [F,A,D]2 | %61
 [E,,E,]2 [G,A,]2 [G,A,]2 | A,,2 G,2 A,,2 | [D,,D,]2 [F,A,]2 [F,A,]2 | [D,,D,]2 [E,,E,]2 [F,,F,]2 | %65
 [G,,G,]2 [G,B,]2 [G,B,]2 | [G,,G,]2 [G,B,D]2 [G,B,D]2 | [B,,B,]6 | [_B,,_B,]6 | %69
 [A,,A,]4 [G,,G,]2 | [F,,F,]2 [^E,,^E,]2 [F,,F,]2 | [E,,=E,]6 | [A,,A,]6 |1 %73
 [D,D]2 [C,C]2 [B,,B,]2 | [A,,A,]2 [F,,F,]2 [E,,E,]2 :|2 [D,D]2 [A,,A,]2 [F,,F,]2 | %76
 [D,,D,]2 z2 z2 |] %77
V:4
 x2 | z2 [EG]2 [EG]2 | A,2 [=F^G]2 [FG]2 | x6 | x6 | z2 [D^G]2 [DG]2 | z2 [=GA]2 [GA]2 | %7
 z2 [FA]2 [FA]2 | [FA]2 z2 z2 |: x6 | x6 :: z2 [A,F]2 [A,E]2 | z2 [G,D]2 [G,D]2 | %13
 z2 [A,F]2 [A,E]2 | z2 [A,D]2 [DF]2 | z2 [B,E]2 [B,^D]2 | z2 [B,E]2 [B,E]2 | B,2 [B,E]2 [B,^D]2 | %18
 z2 [B,G]2 [B,G]2 | x6 | G6 | x6 | G6 | z2 G2 F2 | E6 | D2 C2 B,2 | A,2 (B,2 A,2) | %27
 z2 [A,F]2 [A,E]2 | z2 [G,D]2 [A,D]2 | z2 [A,F]2 [A,E]2 | z2 [A,D]2 [DF]2 | z2 [B,E]2 [A,^D]2 | %32
 B,2 [B,E]2 [B,E]2 | B,2 [B,E]2 [B,^D]2 | z2 [B,E]2 z2 | C2 [DE]2 [DE]2 | E2 ^D2 [=DE]2 | %37
 z2 [CE]2 [CE]2 | x6 | ^D6 | =D4 E2 | x6 | x6 || x6 | x6 | z2 E2 D2 | C2 B,2 A,2 | x6 | x6 | x6 | %50
 x6 | ^D6 | ^D6 | E6 | z6 | ^G6 | ^G6 | x6 | [EG]2 z2 z2 | x6 | x6 | z2 E2 D2 | C2 B,2 A,2 | x6 | %64
 D2 C2 [=CD]2 | z2 [DG]2 [DG]2 | [DG]2 z2 z2 | z2 [EG]2 [EG]2 | B,2 [=F^G]2 [FG]2 | x6 | x6 | %71
 z2 [D^G]2 [DG]2 | z2 [=GA]2 [GA]2 |1 x6 | x6 :|2 x6 | x6 |] %77
V:5
 x2 | x6 | x6 | x6 | x6 | x6 | x6 | D,,2 A,,2 F,,2 | x6 |: x6 | x6 :: x6 | x6 | x6 | x6 | x6 | x6 | %17
 x6 | x6 | x6 | x6 | E,6 | x6 | x6 | x6 | x6 | x6 | x6 | x6 | x6 | x6 | x6 | x6 | x6 | x6 | x6 | %36
 x6 | x6 | x6 | x6 | x6 | x6 | x6 || x6 | x6 | x6 | x6 | x6 | x6 | x6 | x6 | x6 | x6 | x6 | x6 | %55
 x6 | x6 | x6 | x6 | x6 | x6 | x6 | x6 | x6 | x6 | x6 | x6 | x6 | x6 | x6 | x6 | x6 | x6 |1 x6 | %74
 x6 :|2 x6 | x6 |] %77

